public/home/img/mobile-logo.svg

<svg height="274" viewBox="0 0 1184 274" width="1184" xmlns="http://www.w3.org/2000/svg"><g fill="none" fill-rule="evenodd"><g fill="#fff" transform="translate(.674539 .388439)"><path d="m273.812254 136.754798c0-75.4448155-61.233262-136.60492276-136.768319-136.60492276-75.5350566 0-136.76831876 61.16010726-136.76831876 136.60492276 0 75.444816 61.23326216 136.604923 136.76831876 136.604923 75.535057 0 136.768319-61.160107 136.768319-136.604923zm-248.6696707 0c0-61.7275763 50.0999418-111.767664 111.9013517-111.767664 61.80141 0 111.901352 50.0400877 111.901352 111.767664 0 61.727577-50.099942 111.767664-111.901352 111.767664-61.8014099 0-111.9013517-50.040087-111.9013517-111.767664z"/><path d="m190.922364 136.754798c0-29.720685-24.122194-53.8140604-53.878429-53.8140604-29.756234 0-53.8784285 24.0933754-53.8784285 53.8140604s24.1221945 53.814061 53.8784285 53.814061c29.756235 0 53.878429-24.093376 53.878429-53.814061zm-82.88989 0c0-16.003446 12.988873-28.976802 29.011461-28.976802s29.011462 12.973356 29.011462 28.976802-12.988874 28.976802-29.011462 28.976802-29.011461-12.973356-29.011461-28.976802z"/><path d="m301.95022 149.173428c6.433083 0 11.648127-5.56001 11.648127-12.41863 0-6.858619-5.215044-12.418629-11.648127-12.418629h-124.246695c-6.433084 0-11.648128 5.56001-11.648128 12.418629 0 6.85862 5.215044 12.41863 11.648128 12.41863z"/></g><path d="m496.16 152.66c0-19.76-8.74-28.5-34.2-40.09-19.95-9.12-24.89-13.87-24.89-23.94 0-9.69 6.65-17.67 21.66-17.67 10.45 0 20.33 4.18 27.55 9.69l2.85-17.86c-7.6-4.37-17.1-7.41-29.83-7.41-23.75 0-39.9 13.49-39.9 34.58 0 18.81 9.31 26.98 34.01 38.19 19.76 8.93 25.08 13.87 25.08 25.84 0 12.73-9.69 19.95-23.37 19.95-13.11 0-25.46-5.32-34.39-11.21l-2.66 18.24c9.69 5.13 22.42 8.55 36.67 8.55 24.51 0 41.42-14.25 41.42-36.86zm96.33 35.34v-65.93c0-16.34-9.12-26.6-26.22-26.6-12.92 0-23.37 7.22-30.78 13.87v-58.52l-16.91 2.66v134.52h16.91v-62.7c8.17-8.74 17.29-14.63 26.22-14.63 9.88 0 13.87 6.27 13.87 15.58v61.75zm94.81 0v-63.46c0-20.14-10.64-29.07-32.68-29.07-14.06 0-24.32 3.23-35.15 7.6l2.28 14.63c9.88-4.37 20.33-7.79 31.35-7.79 10.45 0 17.29 3.99 17.29 15.39v3.8c-37.81 3.99-57.19 12.92-57.19 35.53 0 15.39 10.26 25.27 26.6 25.27 14.82 0 24.7-6.65 31.92-14.06l1.9 12.16zm-16.91-24.89c-7.6 7.79-17.1 12.73-26.98 12.73-8.55 0-13.49-4.75-13.49-12.16 0-9.31 7.03-18.43 40.47-21.66zm93.86-51.49-2.66-16.15c-14.82.76-25.27 10.07-31.73 20.33l-2.85-18.43h-13.49v90.63h16.91v-53.58c6.08-11.97 18.81-22.04 33.82-22.8zm87.21 29.26c0-25.08-12.16-45.41-38.57-45.41-22.8 0-39.9 17.86-39.9 46.93 0 33.25 18.43 47.5 41.99 47.5 15.01 0 26.6-4.56 36.29-12.16l-2.47-15.2c-9.88 7.79-19.38 12.92-32.49 12.92-15.77 0-25.84-9.88-26.41-30.97h61.56zm-17.1-9.12h-43.7c2.66-15.58 11.59-22.99 22.04-22.99 13.11 0 19.57 8.36 21.66 22.99zm56.81 56.24v-137.18l-16.91 2.66v134.52zm106.59-45.22c0-29.83-17.86-47.31-42.18-47.31-24.13 0-41.61 17.48-41.61 47.31s17.48 47.12 41.61 47.12c24.32 0 42.18-17.29 42.18-47.12zm-17.1 0c0 19-8.36 33.06-25.08 33.06-15.96 0-24.51-14.44-24.51-33.06 0-19 8.17-33.06 24.51-33.06s25.08 14.44 25.08 33.06zm106.59 37.43-2.47-15.2c-9.31 7.98-17.29 10.07-26.41 10.07-15.96 0-27.17-10.45-27.17-32.49 0-21.09 10.45-32.3 25.27-32.3 10.45 0 19 3.23 27.36 10.07l2.47-16.53c-6.84-4.94-16.34-8.36-29.64-8.36-23.56 0-42.56 16.34-42.56 47.31 0 30.21 17.86 47.12 42.18 47.12 12.16 0 21.66-2.66 30.97-9.69zm96.71 6.27-41.42-49.02 38.19-40.09h-20.33l-35.15 38v-84.55l-16.91 2.66v134.52h16.91v-47.5l40.28 48.83z" fill="#ecf0f2"/></g></svg>

<?xml version="1.0" encoding="UTF-8" standalone="no"?>
<svg width="1184px" height="274px" viewBox="0 0 1184 274" version="1.1" xmlns="http://www.w3.org/2000/svg" xmlns:xlink="http://www.w3.org/1999/xlink" xmlns:sketch="http://www.bohemiancoding.com/sketch/ns">
    <!-- Generator: Sketch 3.2.2 (9983) - http://www.bohemiancoding.com/sketch -->
    <title>Outer + Sharelock</title>
    <desc>Created with Sketch.</desc>
    <defs></defs>
    <g id="Android" stroke="none" stroke-width="1" fill="none" fill-rule="evenodd" sketch:type="MSPage">
        <g id="Logo-white" sketch:type="MSArtboardGroup" transform="translate(-118.000000, -119.000000)">
            <g id="Outer-+-Sharelock" sketch:type="MSLayerGroup" transform="translate(118.000000, 119.000000)">
                <g id="Outer" fill="#FFFFFF" sketch:type="MSShapeGroup">
                    <g id="Inner">
                        <g id="Oval-1-+-Oval-2-+-Line" transform="translate(0.674539, 0.388439)">
                            <path d="M273.812254,136.754798 C273.812254,61.3099825 212.578992,0.149875236 137.043935,0.149875236 C61.5088784,0.149875236 0.275616239,61.3099825 0.275616239,136.754798 C0.275616239,212.199614 61.5088784,273.359721 137.043935,273.359721 C212.578992,273.359721 273.812254,212.199614 273.812254,136.754798 Z M25.1425833,136.754798 C25.1425833,75.0272217 75.2425251,24.987134 137.043935,24.987134 C198.845345,24.987134 248.945287,75.0272217 248.945287,136.754798 C248.945287,198.482375 198.845345,248.522462 137.043935,248.522462 C75.2425251,248.522462 25.1425833,198.482375 25.1425833,136.754798 Z" id="Oval-1"></path>
                            <path d="M190.922364,136.754798 C190.922364,107.034113 166.80017,82.9407376 137.043935,82.9407376 C107.287701,82.9407376 83.1655065,107.034113 83.1655065,136.754798 C83.1655065,166.475483 107.287701,190.568859 137.043935,190.568859 C166.80017,190.568859 190.922364,166.475483 190.922364,136.754798 Z M108.032474,136.754798 C108.032474,120.751352 121.021347,107.777996 137.043935,107.777996 C153.066523,107.777996 166.055397,120.751352 166.055397,136.754798 C166.055397,152.758244 153.066523,165.7316 137.043935,165.7316 C121.021347,165.7316 108.032474,152.758244 108.032474,136.754798 Z" id="Oval-2"></path>
                            <path d="M301.95022,149.173428 C308.383303,149.173428 313.598347,143.613418 313.598347,136.754798 C313.598347,129.896179 308.383303,124.336169 301.95022,124.336169 L177.703525,124.336169 C171.270441,124.336169 166.055397,129.896179 166.055397,136.754798 C166.055397,143.613418 171.270441,149.173428 177.703525,149.173428 L301.95022,149.173428 Z" id="Line"></path>
                        </g>
                    </g>
                </g>
                <path d="M496.16,152.66 C496.16,132.9 487.42,124.16 461.96,112.57 C442.01,103.45 437.07,98.7 437.07,88.63 C437.07,78.94 443.72,70.96 458.73,70.96 C469.18,70.96 479.06,75.14 486.28,80.65 L489.13,62.79 C481.53,58.42 472.03,55.38 459.3,55.38 C435.55,55.38 419.4,68.87 419.4,89.96 C419.4,108.77 428.71,116.94 453.41,128.15 C473.17,137.08 478.49,142.02 478.49,153.99 C478.49,166.72 468.8,173.94 455.12,173.94 C442.01,173.94 429.66,168.62 420.73,162.73 L418.07,180.97 C427.76,186.1 440.49,189.52 454.74,189.52 C479.25,189.52 496.16,175.27 496.16,152.66 L496.16,152.66 Z M592.49,188 L592.49,122.07 C592.49,105.73 583.37,95.47 566.27,95.47 C553.35,95.47 542.9,102.69 535.49,109.34 L535.49,50.82 L518.58,53.48 L518.58,188 L535.49,188 L535.49,125.3 C543.66,116.56 552.78,110.67 561.71,110.67 C571.59,110.67 575.58,116.94 575.58,126.25 L575.58,188 L592.49,188 Z M687.3,188 L687.3,124.54 C687.3,104.4 676.66,95.47 654.62,95.47 C640.56,95.47 630.3,98.7 619.47,103.07 L621.75,117.7 C631.63,113.33 642.08,109.91 653.1,109.91 C663.55,109.91 670.39,113.9 670.39,125.3 L670.39,129.1 C632.58,133.09 613.2,142.02 613.2,164.63 C613.2,180.02 623.46,189.9 639.8,189.9 C654.62,189.9 664.5,183.25 671.72,175.84 L673.62,188 L687.3,188 Z M670.39,163.11 C662.79,170.9 653.29,175.84 643.41,175.84 C634.86,175.84 629.92,171.09 629.92,163.68 C629.92,154.37 636.95,145.25 670.39,142.02 L670.39,163.11 Z M764.25,111.62 L761.59,95.47 C746.77,96.23 736.32,105.54 729.86,115.8 L727.01,97.37 L713.52,97.37 L713.52,188 L730.43,188 L730.43,134.42 C736.51,122.45 749.24,112.38 764.25,111.62 L764.25,111.62 Z M851.46,140.88 C851.46,115.8 839.3,95.47 812.89,95.47 C790.09,95.47 772.99,113.33 772.99,142.4 C772.99,175.65 791.42,189.9 814.98,189.9 C829.99,189.9 841.58,185.34 851.27,177.74 L848.8,162.54 C838.92,170.33 829.42,175.46 816.31,175.46 C800.54,175.46 790.47,165.58 789.9,144.49 L851.46,144.49 L851.46,140.88 L851.46,140.88 Z M834.36,131.76 L790.66,131.76 C793.32,116.18 802.25,108.77 812.7,108.77 C825.81,108.77 832.27,117.13 834.36,131.76 L834.36,131.76 Z M891.17,188 L891.17,50.82 L874.26,53.48 L874.26,188 L891.17,188 Z M997.76,142.78 C997.76,112.95 979.9,95.47 955.58,95.47 C931.45,95.47 913.97,112.95 913.97,142.78 C913.97,172.61 931.45,189.9 955.58,189.9 C979.9,189.9 997.76,172.61 997.76,142.78 L997.76,142.78 Z M980.66,142.78 C980.66,161.78 972.3,175.84 955.58,175.84 C939.62,175.84 931.07,161.4 931.07,142.78 C931.07,123.78 939.24,109.72 955.58,109.72 C971.92,109.72 980.66,124.16 980.66,142.78 L980.66,142.78 Z M1087.25,180.21 L1084.78,165.01 C1075.47,172.99 1067.49,175.08 1058.37,175.08 C1042.41,175.08 1031.2,164.63 1031.2,142.59 C1031.2,121.5 1041.65,110.29 1056.47,110.29 C1066.92,110.29 1075.47,113.52 1083.83,120.36 L1086.3,103.83 C1079.46,98.89 1069.96,95.47 1056.66,95.47 C1033.1,95.47 1014.1,111.81 1014.1,142.78 C1014.1,172.99 1031.96,189.9 1056.28,189.9 C1068.44,189.9 1077.94,187.24 1087.25,180.21 L1087.25,180.21 Z M1183.96,186.48 L1142.54,137.46 L1180.73,97.37 L1160.4,97.37 L1125.25,135.37 L1125.25,50.82 L1108.34,53.48 L1108.34,188 L1125.25,188 L1125.25,140.5 L1165.53,189.33 L1183.96,186.48 Z" id="Sharelock" fill="#ECF0F2" sketch:type="MSShapeGroup"></path>
            </g>
        </g>
    </g>
</svg>
